X:1
T:Title
%%score { ( 1 2 ) | ( 3 4 ) }
L:1/8
M:9/8
K:G
V:1 treble nm="Grand Piano"
V:2 treble 
V:3 treble 
V:4 treble 
V:1
 z3 z3[Q:1/4=100] z GA | B3 d3 [Ec]E[Ec] | B3 [B,G]3 [EG][DF][CE] | [B,D]3 [DG]3 AGA | B6 z GA | %5
 B3 d3 [Ec]E[Ec] | B3 G3 ed[Ec] | [DB]3 [Gd]3 [Ec][DB][CA] |[M:3/4] [G,B,G]6 |[M:3/8] Bcd | %10
[M:9/8] [ce]3 [ce]3 ABc | [Bd]6 z3 | A3 A2 c B2 A | [DB]6 Bcd | [ce]3[K:bass][K:treble] z3 z3 | %15
 [Bd]6 z3 | [DGd]3- [DGd]2 [Ec] [DB]2 [CA] |[M:21/16] G3/2-G3/2- G3 z3/2 z3 |] %18
V:2
 z3 z3 .D3 | x9 | D6 z3 | x9 | z3 z3 .D3 | x9 | D6 z3 | x9 |[M:3/4] x6 |[M:3/8] x3 |[M:9/8] x9 | %11
 z3 G,3 F2 G | x9 | x9 | z2[K:bass] [C,G,][K:treble] [ce]3 ABc | z2 G, G,3 [Ge]2 [Ge] | x9 | %17
[M:21/16] [G,B,]->[G,B,]B,E->EED3/2- D3 |] %18
V:3
 z3 z3 [G,B,]2 [G,CD] | [G,DG]3 [G,B,G]3[K:bass] [C,C]2 [C,G,] | G,3 z3 [C,G,]2 [C,G,] | %3
 [G,,G,]3 [B,,G,]3 [D,F,D]2 [D,F,D] | [G,D]6 [G,B,]2[K:treble] [G,CD] | %5
 [G,DG]3 [G,B,G]3[K:bass] [C,C]2 [C,G,] | G,3 B,3 CD[C,G,] | [D,G,]3 [D,B,]3 [D,F,]2 [D,F,] | %8
[M:3/4] G,,6 |[M:3/8][K:treble] GAB |[M:9/8][K:bass] [C,G,]3 [C,G,]3[K:treble] FGA | %11
 [G,,G,]3 G,,3 [D,A,D]2 [D,B,D] | [D,CD]3 [D,CD]2 [D,A,D] [D,G,D]2 [F,D] | [G,,G,]6[K:treble] GAB | %14
 .[C,G,]3 [C,G,]3[K:treble] FGA | G,,2 G,, G,,3 [C,G,]2 [C,C] | B,,3- B,,2 [C,G,] [D,G,]2 [D,F,] | %17
[M:21/16] z3/2 z/ G,C->CCB,3/2- B,3 |] %18
V:4
 x9 | x6[K:bass] x3 | G,,6 z3 | x9 | x8[K:treble] x | x6[K:bass] x3 | G,,6 .C,3 | x9 |[M:3/4] x6 | %9
[M:3/8][K:treble] x3 |[M:9/8][K:bass] x6[K:treble] x3 | x9 | x9 | x6[K:treble] x3 | %14
 x6[K:treble] x3 | x9 | x9 |[M:21/16] G,,3/2-G,,3/2- G,,3 z3/2 z3 |] %18

